X:1
T:Title
%%score 1 2 3
L:1/8
M:3/2
K:C
V:1 treble nm="Part_1"
V:2 treble nm="Part_2"
V:3 treble-8 nm="Part_3"
V:1
 F12 | A6 G2 E4 | F4 _B6 A2 | A2 G4 D2 ^F2 EF | G4 z2 (3:2:2_B4 A2 c2- | c_B A4 GA G2 E2- | %6
 ED E2 F2 G4 E2- | E2 C2 D2 B,4 A,2 | C4 z4 E2 F2 | G4 F2 A2 _B2 c2 | c_B c2 (3:2:2A4 G2 A4 | %11
 F2 G4 F4 E2 | F8 z4 | A6 F2 A2 _B2 | c6 c2 A2 GA | _B4 d6 c2 | c8 A4 | F2 A2 G2 E4 D2 | %18
 E3 F G2 D2 E2 DE | F4 z4 A2 _B2 | c8 A4 | _B2 A4 F4 E2 | F4 G4 E2 D2 | C2 F4 G2 A4 | A6 _B2 c4 | %25
 A4 _B2 A2 GA F2 | E4 z4 G4 | A4 G2 c4 _B2 | A4 c4 _B4 | (3:2:2A4 F2 E4 D4 | E3 F G2 A4 F2 | %31
 E4 D2 G2 A2 F2 | G4 z4 _B4 | A2 c4 (3:2:2_B4 G2 A2- | A2 F3 E F2 G2 _B2 | A4 z4 F4 | A4 G2 E2 D4 | %37
 C4 F2 G2 A4- | A2 F2 E3 F G2 A2- | A2 G2 E4 D4 | z4 C4 E4- | E4 A6 G2 | E3 F G2 D2 E2 F2- | %43
 F2 A2 G2 E4 D2 | F12 ||[M:2/2] C8 | E8 | F8 | E4 G4- | G4 F4 | E6 C2 | C6 B,C | (3:2:2B,4 A,2 C4 | %53
 z4 F4- | F4 G4 | A2 GA _B2 A2 | GA F2 (3:2:1F6- | (3:2:5F2 E2 F2 E4 D2 | F8 | z4 A4- | A4 G4 | %61
 E4 D4 | F6 E2 | C4 D4 | C4 z4 | F4 E4- | E2 C2 D4- | D4 (3G2 F2 G2 | (3:2:2A4 E2 ^F2 EF | G8 | %70
 z4 _B4 | A6 F2 | G4 F4 | A4 _B4 | c8 | z4 A4 | G6 c2 | d2 A2 _B2 AB | c4 A2 G2- | G2 _B4 A2 | %80
 F2 G4 E2 | D4 C4 | F2 G2 A3 F | G2 F4 E2 | F8 ||[M:3/2] F8 A2 _B2 | c6 A2 _B4 | A2 F4 D2 F2 G2 | %88
 A8 z4 | F4 A4 G2 c2- | c2 d4 c4 B2 | c8 A4 | z4 A2 _B2 c4- | c4 z4 A4 | c2 d4 c2 A4 | %95
 F2 G2 A2 GA _B2 G2 | A4 z4 F4 | G4 E4 A4 | A6 G2 E4 | F4 E4 C4 | D4 F2 EF G4 | D4 F4 G2 FG | %102
 A8 z4 | _B4 A2 G3 F G2- | G2 A4 F4 E2 | F2 A3 G A2 _B2 G2 | A4 z4 F4 | E2 A4 G2 F4 | G4 _B8 | %109
 A4 z4 F4 | E4 D2 G4 A2- | A2 F2 (3:2:2G4 D2 E2 DE | F12 |] %113
V:2
 z12 | z12 | z12 | z12 | z12 | z12 | z12 | z12 | z12 | z12 | z12 | z12 | z12 | F,12- | F,12 | %15
 G,8 A,4- | A,4 F,8- | F,4 G,8 | G,12 | F,12- | F,12 | z12 | z12 | z12 | F,12- | F,4 D,8 | C,12- | %27
 C,12 | F,8 G,4 | A,8 _B,4 | C8 A,4- | A,4 _B,4 A,4 | G,12 | F,4 G,6 E,2 | F,4 A,4 G,4 | F,12 | %36
 z12 | F,12 | A,4 C8- | C8 B,4 | C12 | A,8 C4- | C4 _B,4 A,4 | F,4 G,8 | F,12 ||[M:2/2] z8 | z8 | %47
 z8 | z8 | z8 | z8 | z8 | z8 | z8 | z8 | z8 | z8 | z8 | z8 | z8 | z8 | z8 | z8 | z8 | z8 | z8 | %66
 z8 | z8 | z8 | z8 | z8 | z8 | z8 | z8 | z8 | z8 | z8 | z8 | z8 | z8 | z8 | z8 | z8 | z8 | z8 || %85
[K:F][M:3/2][K:treble-8] F12 | F3 E F4 G4 | A4 B8 | A12 | z12 | z12 | F12- | F12 | F12 | F12 | %95
 z12 | D12 | C8 F4- | F4 G8 | A12 | B12- | B12 | A12 | z12 | z12 | z12 | A12- | A12 | G12 | F12 | %110
 G4 B4 c4 | A4 G8 | F12 |] %113
V:3
[K:F] f12- | f4 c8 | d12 | c4 B4 A4 | G8 F4- | F4 c8 | G4 z4 c4 | e4 d8 | c8 A4 | G2 B4 A2 G3 F | %10
 F3 E F2 B2 c2 A2- | A2 G2 (3:2:2B4 A2 G4 | F12 | c8 f4- | f4 f4 f4 | d6 g2 f2 e2- | ec e2 f8 | %17
 c4 B8 | G4 B8 | c8 f4- | f4 z4 f4 | g3 f a4 g4 | f4 e2 c4 B2 | c3 A B4 A2 F2 | c4 d4 c4- | %25
 c4 z4 B4 | c12 | A2 c4 B2 A4 | D4 A4 z2 G2 | D4 z2 C2 G4 | C8 D4 | z4 G4 c4 | d4 e2 f2 g2 e2 | %33
 (3:2:4f4 e2 d4 B2 c4 | A4 c4 e3 d | f8 z2 d2- | d2 f2 e2 c4 B2 | c2 A2 d2 c4 A2 | F4 C8 | %39
 F2 E2 C4 G4 | F4 A8 | z4 F6 E2 | C4 z2 G2 A2 F2 | c4 =B8 | c12 ||[M:2/2] c8- | c8 | d8 | c6 B2 | %49
 G4 d4 | c4 e4- | e4 d4- | d4 c4- | c4 A4 | _B8 | A4 F4- | F4 A4 | G8 | F8- | F8 | z4 c4- | %61
 c4 d4- | d4 c4- | c4 f4 | e4 d4- | d4 c4 | A4 G4 | B8 | A8 | G8- | G8 | z8 | B4 A4- | A2 F2 G4 | %74
 F4 A4 | B4 c4- | c4 e4 | d8 | c8 | B4 G2 F2- | F2 B2 c4 | d3 B c2 A2- | A2 G2 F2 B2- | B2 A2 G4 | %84
 F8 ||[M:3/2] z12 | z12 | z12 | z12 | f8 e4 | c2 B3 G c2 d4 | c4 f8 | d2 c4 d2 c2 A2- | %93
 A2 F2 A2 B2 c4 | z4 f8 | d4 c4 B4 | A4 F4 B4 | z4 c8 | f4 e4 d2 B2 | c8 e4 | d8 G4- | G4 d8 | %102
 e4 z4 c4 | d4 c4 A2 (3:2:1G3- | (3:2:2G E2 F2 A4 G4 | F4 c4 B4 | A4 F4 D4 | z4 c8 | d8 e4 | %109
 f4 d2 c2 c4 | z4 G4 C4 | F4 =B8 | c12 |] %113

